X: 11673
T: Eileen O'Riordan's
R: slide
M: 12/8
K: Amixolydian
|:E2A ABA E2A ABA|e2A ABA G2E F2D|
E2A ABA E2A A2c|e2c dcB A3 A3:|
|:e3 efe d3 c2d|e2A ABA G2E F2D|
E2A ABA E2A A2c|e2c dcB A3 A3:|

